!!!COM: Palestrina, Giovanni Perluigi da
!!!OPR: De Beata Marie Virginis (III)
!!!OTL: Sanctus rpt
**kern	**kern	**kern	**kern	**kern
*Ibass	*Itenor	*Itenor	*Icalto	*Icant
!Bassus	!Tenor 2	!Tenor 1	!Altus	!Cantus
*clefF4	*clefGv2	*clefGv2	*clefG2	*clefG2
*k[]	*k[]	*k[]	*k[]	*k[]
*G:mix	*G:mix	*G:mix	*G:mix	*G:mix
*M4/2	*M4/2	*M4/2	*M4/2	*M4/2
=1	=1	=1	=1	=1
0r	0r	0r	1d	1dd
.	.	.	2.e	2.b
.	.	.	4f#	4a
=2	=2	=2	=2	=2
0r	0r	0r	2g	2b
.	.	.	2a	2cc
.	.	.	2.g	2.b
.	.	.	4a	4cc
=3	=3	=3	=3	=3
0r	1r	1r	2b	2dd
.	.	.	1cc	2ee
.	1g	1G	.	1dd
.	.	.	2b	.
=4	=4	=4	=4	=4
0r	2.e	2.A	2cc	2r
.	.	.	2a	1cc
.	4d	4B	.	.
.	2e	2c	2g	.
.	2f	2d	2f	4b
.	.	.	.	4a
=5	=5	=5	=5	=5
0r	2.e	2.c	2g	4cc
.	.	.	.	4dd
.	.	.	2c	2ee
.	4f#	4A	.	.
.	2g	2B	2d	2dd
.	[2a	[2c	2e	2cc
=6	=6	=6	=6	=6
1r	4a]	2c]	1r	2ee
.	4g	.	.	.
.	1g	2B	.	2dd
1D	.	1A	1d	1dd
.	2f#	.	.	.
=7	=7	=7	=7	=7
2.E	2g	2G	2.B	0r
.	2e	1g	.	.
4F#	.	.	4A	.
2G	2d	.	2B	.
2A	2c	2f#	2c	.
=8	=8	=8	=8	=8
2.G	2d	1g	2.B	2r
.	2G	.	.	2b
4E	.	.	4c#	.
2F#	2A	1r	2d	2a
[2G	[2B	.	[2e	2g
=9	=9	=9	=9	=9
2G]	2B]	2r	4e]	1dd
.	.	.	4d	.
2F	2A	2d	1d	.
1E	1G	4e	.	1r
.	.	4f#	.	.
.	.	[2g	2c	.
=10	=10	=10	=10	=10
1D	1d	2g]	2B	1dd
.	.	2f#	2A	.
1r	2.e	2.g	1r	2.b
.	4f#	4f#	.	4a
=11	=11	=11	=11	=11
0r	2g	2e	2r	2b
.	2a	2A	2.e	2cc
.	2.g	1e	.	2.b
.	.	.	4f#	.
.	.	.	2g	.
.	4e	.	.	4cc
=12	=12	=12	=12	=12
0r	2f#	2d	2a	2dd
.	1g	2c	2cc	2.ee
.	.	1d	2b	.
.	.	.	.	4dd
.	2f#	.	2a	[2dd
=13	=13	=13	=13	=13
0r	1e	1A	2.a	2dd]
.	.	.	.	2cc#
.	.	.	4g	.
.	2r	1d	1f#	2dd
.	2d	.	.	2dd
=14	=14	=14	=14	=14
1r	2e	1r	0r	2b
.	2e	.	.	2cc
1D	1f	2r	.	1a
.	.	2d	.	.
=15	=15	=15	=15	=15
2E	1e	2B	0r	1g
2E	.	2c	.	.
1F	2c	1A	.	1a
.	2A	.	.	.
=16	=16	=16	=16	=16
1E	1e	1G	2r	2.b
.	.	.	2g	.
.	.	.	.	8a
.	.	.	.	8b
1r	1r	1A	2e	2cc
.	.	.	2f	[2a
=17	=17	=17	=17	=17
1r	1r	1B	1d	4a]
.	.	.	.	4g
.	.	.	.	1g
1D	2r	2.A	1d	.
.	2d	.	.	2f#
.	.	4A	.	.
=18	=18	=18	=18	=18
2E	2B	2G	2r	1g
2E	2c	2g	2G	.
1F	1A	2a	2c	2r
.	.	2f	[2d	2dd
=19	=19	=19	=19	=19
1E	1G	2g	4d]	2ee
.	.	.	8c#	.
.	.	.	8B	.
.	.	2g	2c#	2ee
2D	2.A	2f	1d	1ff
2D	.	2d	.	.
.	4B	.	.	.
=20	=20	=20	=20	=20
1C	1.c	1e	1g	2ee
.	.	.	.	2gg
1r	.	1r	2a	2ee
.	2d	.	2a	2ff
=21	=21	=21	=21	=21
0r	1G	2r	1b-	1dd
.	.	2g	.	.
.	2A	2e	1a	1cc
.	[2a	2f	.	.
=22	=22	=22	=22	=22
0r	2a]	1d	4f	1dd
.	.	.	4g	.
.	2f	.	4a	.
.	.	.	4b	.
.	1g	2c	2cc	2.ee
.	.	2e	2b	.
.	.	.	.	4dd
=23	=23	=23	=23	=23
1r	1r	2f	2a	2cc
.	.	2g	1g	2b
2r	2r	1d	.	1a
2d	2d	.	2f#	.
=24	=24	=24	=24	=24
2B	2d	2G	1g	1g
2c	2e	2.c	.	.
1A	2f	.	1r	2r
.	.	4d	.	.
.	[2e	4e	.	2a
.	.	4f	.	.
=25	=25	=25	=25	=25
1G	2e]	2g	1r	2b
.	2d	2g	.	2b
1A	4c	1e	2r	2cc
.	4d	.	.	.
.	4e	.	2a	2cc
.	4c	.	.	.
=26	=26	=26	=26	=26
2D	2d	1r	2f#	2a
2.d	2G	.	2g	2b
.	1A	2r	1e	[1a
8c#	.	.	.	.
8B	.	.	.	.
2c#	.	2e	.	.
=27	=27	=27	=27	=27
2d	2r	2f#	1d	1a]
2D	2d	2f#	.	.
2E	2B	4g	2G	1r
.	.	4f	.	.
2E	2c	4e	2g	.
.	.	4d	.	.
=28	=28	=28	=28	=28
1F	1A	4c	2a	2r
.	.	4A	.	.
.	.	1d	2f	2dd
1E	1G	.	2g	2ee
.	.	2c#	2g	2ee
=29	=29	=29	=29	=29
1D	1A	1d	2f	1ff
.	.	.	2d	.
1C	2.c	1G	4e	1ee
.	.	.	4f	.
.	.	.	4g	.
.	4B	.	4e	.
=30	=30	=30	=30	=30
0D	2A	0d	2f#	1.dd
.	2B	.	1g	.
.	1A	.	.	.
.	.	.	2f#	2dd
=31	=31	=31	=31	=31
[0G	[0G	[0d	[0g	[0b
=32	=32	=32	=32	=32
0G]	0G]	0d]	0g]	0b]
==	==	==	==	==
*-	*-	*-	*-	*-
!!!CDT: 1525/^1526/-1594/2/2
!!!OCY: Italia
!!!AGN: Mass (Paraphrase)
!!!AST: renaissance, vocal
!!!ASW: Gregorian Mass
!!!PWK: Masses, Book Mantuan I
!!!RNB: Cadence finals: D
!!!YOR: Le Opere Complete, v. 18, p. 162
!!!YOO: Rome, Italy: Fratelli Scalera
!!!END: 1992//
!!!EED: John Miller
!!!YEC: Copyright 2000, John Miller
!!!YEN: United States of America
!!!YEM: Rights to all derivative electronic formats reserved.
!!!YEM: Refer to licensing agreement for further details.
!!!YEM: This file must be accompanied by the licensing agreement.
!!!YEM: A copy of the licensing agreement may be found at http://www.music-cog.ohio-state.edu/HumdrumDatabases/Palestrina/license.txt
!!!EMD: converted to Humdrum by Bret Aarden
